src/assets/coins.svg

<svg xmlns="http://www.w3.org/2000/svg" width="2140" height="1002" fill="none" viewBox="0 0 2140 1002">
    <path fill="#d3f0ff" stroke="#7f42e1" stroke-linecap="round" stroke-linejoin="round" stroke-width="22" d="M1227.72 1206.17s-27.58 47.63-41.91 72.39c-122.2 211.04-437.192 257.09-703.535 102.87-266.343-154.21-383.182-450.31-260.986-661.349l41.913-72.386C408.06 496 1287.2 1005.04 1227.72 1206.17"/>
    <path fill="#fff" stroke="#7f42e1" stroke-linecap="round" stroke-linejoin="round" stroke-width="22" d="M1227.72 1206.17c122.2-211.04 5.34-507.146-261.015-661.37-266.353-154.224-581.336-108.165-703.533 102.877-122.197 211.041-5.336 507.143 261.017 661.373 266.353 154.22 581.331 108.16 703.531-102.88"/>
    <path fill="#fff" stroke="#7f42e1" stroke-linecap="round" stroke-linejoin="round" stroke-width="22" d="M1155.98 1164.49c101.17-174.726-.59-422.777-227.287-554.038-226.695-131.261-492.481-96.027-593.65 78.698-101.17 174.724.589 422.77 227.284 554.04 226.695 131.26 492.483 96.02 593.653-78.7"/>
    <path fill="#d3f0ff" stroke="#7f42e1" stroke-linecap="round" stroke-linejoin="round" stroke-width="22" d="m1151.63 1071.71-86.33-80.845c-104.599-97.961-18.81-359.477 191.57-584.11s465.72-327.36 570.32-229.4l86.33 80.849c-12.05 122.57-636.83 807.726-761.89 813.506"/>
    <path fill="#fff" stroke="#7f42e1" stroke-linecap="round" stroke-linejoin="round" stroke-width="22" d="M1151.63 1071.71c104.58 97.96 359.92-4.75 570.31-229.395s296.16-486.159 191.58-584.11c-104.59-97.951-359.93 4.755-570.32 229.399-210.39 224.645-296.16 486.16-191.57 584.106"/>
    <path fill="#fff" stroke="#7f42e1" stroke-linecap="round" stroke-linejoin="round" stroke-width="22" d="M1205.47 1014.25c76.22 71.39 284.33-26.983 464.82-219.707 180.5-192.724 265.03-406.823 188.81-478.204-76.21-71.38-284.32 26.988-464.81 219.712-180.5 192.724-265.03 406.823-188.82 478.199"/>
    <path stroke="#7f42e1" stroke-linecap="round" stroke-linejoin="round" stroke-width="22" d="m1548.58 185.566 86.33 80.849m-314.2 77.079 86.33 80.849m-295.52 174.286 86.35 80.874M1023.85 826.75l86.32 80.849"/>
    <path fill="#d3f0ff" stroke="#7f42e1" stroke-linecap="round" stroke-linejoin="round" stroke-width="22" d="m2536.47 1341.59-116.12 84.18c-85.41 61.92-301.11-89.89-481.76-339.07-180.64-249.189-257.87-501.382-172.46-563.301l112.79-81.766c104.66 35.276 632.77 791.737 657.53 899.927z"/>
    <path stroke="#7f42e1" stroke-linecap="round" stroke-linejoin="round" stroke-width="22" d="m1876.33 686.047-112.79 81.766m124.25 244.627 112.79-81.771"/>
    <path fill="#fff" stroke="#7f42e1" stroke-linecap="round" stroke-linejoin="round" stroke-width="22" d="M2533.11 1344.02c85.42-61.92 8.22-314.12-172.43-563.314-180.65-249.189-396.34-400.997-481.76-339.074-85.41 61.924-8.21 314.13 172.44 563.318 180.64 249.19 396.33 401 481.75 339.07"/>
    <path fill="#fff" stroke="#7f42e1" stroke-linecap="round" stroke-linejoin="round" stroke-width="22" d="M2486.75 1280.37c57.37-41.59-21.76-248.61-176.74-462.39-154.98-213.781-327.12-353.37-384.49-311.78s21.76 248.609 176.74 462.389c154.98 213.781 327.12 353.371 384.49 311.781"/>
</svg>

<svg width="2140" height="1002" viewBox="0 0 2140 1002" fill="none" xmlns="http://www.w3.org/2000/svg">
<path d="M1227.72 1206.17C1227.72 1206.17 1200.14 1253.8 1185.81 1278.56C1063.61 1489.6 748.618 1535.65 482.275 1381.43C215.932 1227.22 99.0931 931.12 221.289 720.081L263.202 647.695C408.06 496 1287.2 1005.04 1227.72 1206.17Z" fill="#D3F0FF" stroke="#7F42E1" stroke-width="22" stroke-linecap="round" stroke-linejoin="round"/>
<path d="M1227.72 1206.17C1349.92 995.13 1233.06 699.024 966.705 544.8C700.352 390.576 385.369 436.635 263.172 647.677C140.975 858.718 257.836 1154.82 524.189 1309.05C790.542 1463.27 1105.52 1417.21 1227.72 1206.17Z" fill="white" stroke="#7F42E1" stroke-width="22" stroke-linecap="round" stroke-linejoin="round"/>
<path d="M1155.98 1164.49C1257.15 989.764 1155.39 741.713 928.693 610.452C701.998 479.191 436.212 514.425 335.043 689.15C233.873 863.874 335.632 1111.92 562.327 1243.19C789.022 1374.45 1054.81 1339.21 1155.98 1164.49Z" fill="white" stroke="#7F42E1" stroke-width="22" stroke-linecap="round" stroke-linejoin="round"/>
<path d="M1151.63 1071.71L1065.3 990.865C960.701 892.904 1046.49 631.388 1256.87 406.755C1467.25 182.122 1722.59 79.3943 1827.19 177.355L1913.52 258.204C1901.47 380.774 1276.69 1065.93 1151.63 1071.71Z" fill="#D3F0FF" stroke="#7F42E1" stroke-width="22" stroke-linecap="round" stroke-linejoin="round"/>
<path d="M1151.63 1071.71C1256.21 1169.67 1511.55 1066.96 1721.94 842.315C1932.33 617.67 2018.1 356.156 1913.52 258.205C1808.93 160.254 1553.59 262.96 1343.2 487.604C1132.81 712.249 1047.04 973.764 1151.63 1071.71Z" fill="white" stroke="#7F42E1" stroke-width="22" stroke-linecap="round" stroke-linejoin="round"/>
<path d="M1205.47 1014.25C1281.69 1085.64 1489.8 987.267 1670.29 794.543C1850.79 601.819 1935.32 387.72 1859.1 316.339C1782.89 244.959 1574.78 343.327 1394.29 536.051C1213.79 728.775 1129.26 942.874 1205.47 1014.25Z" fill="white" stroke="#7F42E1" stroke-width="22" stroke-linecap="round" stroke-linejoin="round"/>
<path d="M1548.58 185.566L1634.91 266.415" stroke="#7F42E1" stroke-width="22" stroke-linecap="round" stroke-linejoin="round"/>
<path d="M1320.71 343.494L1407.04 424.343" stroke="#7F42E1" stroke-width="22" stroke-linecap="round" stroke-linejoin="round"/>
<path d="M1111.52 598.629L1197.87 679.503" stroke="#7F42E1" stroke-width="22" stroke-linecap="round" stroke-linejoin="round"/>
<path d="M1023.85 826.75L1110.17 907.599" stroke="#7F42E1" stroke-width="22" stroke-linecap="round" stroke-linejoin="round"/>
<path d="M2536.47 1341.59L2420.35 1425.77C2334.94 1487.69 2119.24 1335.88 1938.59 1086.7C1757.95 837.511 1680.72 585.318 1766.13 523.399L1878.92 441.633C1983.58 476.909 2511.69 1233.37 2536.45 1341.56L2536.47 1341.59Z" fill="#D3F0FF" stroke="#7F42E1" stroke-width="22" stroke-linecap="round" stroke-linejoin="round"/>
<path d="M1876.33 686.047L1763.54 767.813" stroke="#7F42E1" stroke-width="22" stroke-linecap="round" stroke-linejoin="round"/>
<path d="M1887.79 1012.44L2000.58 930.669" stroke="#7F42E1" stroke-width="22" stroke-linecap="round" stroke-linejoin="round"/>
<path d="M2533.11 1344.02C2618.53 1282.1 2541.33 1029.9 2360.68 780.706C2180.03 531.517 1964.34 379.709 1878.92 441.632C1793.51 503.556 1870.71 755.762 2051.36 1004.95C2232 1254.14 2447.69 1405.95 2533.11 1344.02Z" fill="white" stroke="#7F42E1" stroke-width="22" stroke-linecap="round" stroke-linejoin="round"/>
<path d="M2486.75 1280.37C2544.12 1238.78 2464.99 1031.76 2310.01 817.98C2155.03 604.199 1982.89 464.61 1925.52 506.2C1868.15 547.79 1947.28 754.809 2102.26 968.589C2257.24 1182.37 2429.38 1321.96 2486.75 1280.37Z" fill="white" stroke="#7F42E1" stroke-width="22" stroke-linecap="round" stroke-linejoin="round"/>
</svg>
